assets/images/svg/svg-medium.svg

<svg width="18" height="18" viewBox="0 0 18 18" fill="none" xmlns="http://www.w3.org/2000/svg">
<g clip-path="url(#clip0_1620_22153)">
<path fill-rule="evenodd" clip-rule="evenodd" d="M9.0149 0C7.23486 0 5.49481 0.52784 4.01476 1.51677C2.53472 2.50571 1.38117 3.91131 0.699981 5.55585C0.0187922 7.20038 -0.159438 9.00998 0.187829 10.7558C0.535096 12.5016 1.39226 14.1053 2.65093 15.364C3.90961 16.6226 5.51325 17.4798 7.25908 17.8271C9.00491 18.1743 10.8145 17.9961 12.459 17.3149C14.1036 16.6337 15.5092 15.4802 16.4981 14.0001C17.4871 12.5201 18.0149 10.78 18.0149 9C18.0149 6.61305 17.0667 4.32387 15.3789 2.63604C13.691 0.948211 11.4018 0 9.0149 0ZM9.0149 0.465C10.7041 0.467967 12.3545 0.971685 13.7575 1.91248C15.1605 2.85328 16.2531 4.18891 16.8971 5.75054C17.5412 7.31218 17.7078 9.0297 17.3759 10.686C17.0439 12.3423 16.2284 13.863 15.0324 15.0559C13.8364 16.2488 12.3135 17.0603 10.6563 17.3878C8.99918 17.7154 7.2821 17.5443 5.72217 16.8961C4.16224 16.248 2.82948 15.1519 1.89238 13.7464C0.955287 12.341 0.455916 10.6892 0.457396 9C0.45838 7.87755 0.680562 6.7663 1.11124 5.72976C1.54192 4.69323 2.17265 3.75173 2.96739 2.95908C3.76212 2.16643 4.70528 1.53818 5.74295 1.11023C6.78061 0.682283 7.89245 0.463029 9.0149 0.465ZM7.17739 12.555H4.5149V12.405L5.45989 11.2575C5.50973 11.2069 5.54665 11.145 5.56753 11.0772C5.58842 11.0093 5.59266 10.9374 5.57989 10.8675V6.885C5.58619 6.83078 5.57925 6.77584 5.55966 6.7249C5.54006 6.67396 5.5084 6.62852 5.4674 6.5925L4.6274 5.58V5.43H7.2374L9.2549 9.855L11.0249 5.43H13.5149V5.58L12.7649 6.27C12.7352 6.2938 12.7126 6.32521 12.6994 6.36087C12.6862 6.39654 12.6829 6.43512 12.6899 6.4725V11.535C12.6829 11.5724 12.6862 11.611 12.6994 11.6466C12.7126 11.6823 12.7352 11.7137 12.7649 11.7375L13.4699 12.4275V12.5775H9.9524V12.4275L10.7024 11.6775C10.7774 11.61 10.7774 11.5875 10.7774 11.4825V7.425L8.7524 12.555H8.4824L6.1274 7.425V10.8675C6.11796 10.9379 6.12453 11.0095 6.1466 11.0771C6.16868 11.1446 6.20569 11.2063 6.2549 11.2575L7.1999 12.405L7.17739 12.555Z" fill="white"/>
</g>
<defs>
<clipPath id="clip0_1620_22153">
<rect width="18" height="18" fill="white"/>
</clipPath>
</defs>
</svg>

<svg width="18" height="18" fill="none" xmlns="http://www.w3.org/2000/svg">
  <g clip-path="url(#a)">
    <path fill-rule="evenodd" clip-rule="evenodd" d="M9.015 0a9 9 0 1 0 0 18 9 9 0 0 0 0-18Zm0 .465a8.542 8.542 0 1 1-.03 17.085A8.542 8.542 0 0 1 9.015.465Zm-1.838 12.09H4.515v-.15l.945-1.147a.443.443 0 0 0 .12-.39V6.884a.338.338 0 0 0-.113-.292l-.84-1.013v-.15h2.61l2.018 4.425 1.77-4.425h2.49v.15l-.75.69a.21.21 0 0 0-.075.203v5.062a.21.21 0 0 0 .075.203l.705.69v.15H9.952v-.15l.75-.75c.075-.068.075-.09.075-.196V7.425l-2.025 5.13h-.27l-2.355-5.13v3.442a.473.473 0 0 0 .128.39l.945 1.148-.023.15Z" fill="#fff"/>
  </g>
  <defs>
    <clipPath id="a">
      <path fill="#fff" d="M0 0h18v18H0z"/>
    </clipPath>
  </defs>
</svg>
